X:1
T:Dort in den Weiden
T:Johannes Brahms
T:Dort in den Weiden
T:aus Zwölf Deutsche Volkslieder, WoO 35,8
T:CPDL - Creative Commons Attribution Non Commercial 3.0
T:CPDL - Creative Commons Attribution Non Commercial 3.0
C:Johannes Brahms
Z:CPDL - Creative Commons Attribution Non Commercial 3.0
%%score [ 1 2 3 4 ]
L:1/8
Q:1/4=88
M:2/4
K:Bb
V:1 treble nm="S"
V:2 treble nm="A"
V:3 treble-8 nm="T"
V:4 bass nm="B"
V:1
"^Zierlich und lebhaft" z z!p!"^leggiero" .D | .G.A .B.c | .d.e !>!d2 | .e.f !>!e2 | .d.e !>!d>.d | %5
w: 1.~Dort|in den Wei- den|steht ein Haus,|steht ein Haus,|steht ein Haus, da|
w: 2.~Des|Mor- gens fährt er|auf dem Fluss,|auf dem Fluss,|auf dem Fluss, und|
w: 3.~Die|Nach- ti- gall im|Flie- der- strauch,|Flie- der- strauch,|Flie- der- strauch, was|
 .G.A .B.c | .d.e !>!d>!f!D | !>!B2 !>!A2 | !>!G2 z!p! G/A/ | .B.c .d.e | .f.g !>!f>.f | %11
w: schaut die Magd zum|Fen- ster naus, zum|Fen- ster|naus. Sie _|schaut strom- auf, sie|schaut strom- ab, ist|
w: singt hin- ü- ber|sei- nen Gruß, ja|sei- nen|Gruß. Des _|A- bends, wenns Glüh-|würm- chen fliegt, sein|
w: sie da singt, ver-|steh ich auch, ver-|steh ich|auch. Sie _|sa- get, ü- bers|Jahr ist Fest, hab|
 .A.B .c.d | .e.f !>!e>e | .G.A .B.c | .d.e !>!d>!f!D | !>!B2 !>!A2 | !>!G2 z2 | z |] %18
w: noch nicht da mein|Her- zens- knab, der|schön- ste Bursch am|gan- zen Rhein, den|nenn ich|mein.||
w: Na- chen an das|U- fer wiegt, da|kann ich mit dem|Bur- schen mein bei-|sam- men|sein.||
w: ich, mein Lie- ber,|auch ein Nest, wo|ich dann mit dem|Bur- schen mein die|Froh'st am|Rhein.||
V:2
 z z2 | z!p!"^leggiero" .^F .G.G | .G.G .G.G | !>!G2 .G.G | G2 z D | G^F GG | GG !>!G>!f!D | %7
w: |1.Dort in den|Wei- den steht ein|Haus, steht ein|Haus, da|schaut die Magd zum|Fen- ster naus, zum|
w: |2.Des Mor- gens|fährt er auf dem|Fluss, auf dem|Fluss, und|singt hin- ü- ber|sei- nen Gruß, ja|
w: |3.Die Nach- ti-|gall im Flie- der-|strauch, Flie- der-|strauch, was|sie da singt, ver-|steh ich auch, ver-|
 !>!G2 !>!^F2 | !>!G2 z!p! .G | .G.A F/B/ A/G/ | .F.E .B A/G/ | .F.G .A.F | .G.A .G.G | %13
w: Fen- ster|naus. Sie|schaut strom- auf, _ sie _|schaut strom- ab, ist _|noch nicht da mein|Her- zens- knab, der|
w: sei- nen|Gruß. Des|A- bends, wenns _ Glüh- *|würm- chen fliegt, sein *|Na- chen an das|U- fer wiegt, da|
w: steh ich|auch. Sie|sa- get, ü- * bers _|Jahr ist Fest, hab *|ich, mein Lie- ber,|auch ein Nest, wo|
 .G.^F .G.A | B A/G/ B!f!G | !>!G2 !>!^F2 | !>!G2 z2 | z |] %18
w: schön- ste Bursch am|gan- zen * Rhein, den|nenn ich|mein.||
w: kann ich mit dem|Bur- schen * mein bei-|sam- men|sein.||
w: ich dann mit dem|Bur- schen * mein die|Froh'st am|Rhein.||
V:3
 z z!p!"^leggiero" .D | .d.c .d.c | .B.c !>!B2 | .c.d !>!c2 | .B.c !>!B>.B | .d.c .d.c | %6
w: 1.~Dort|in den Wei- den|steht ein Haus,|steht ein Haus,|steht ein Haus, da|schaut die Magd zum|
w: 2.~Des|Mor- gens fährt er|auf dem Fluss,|auf dem Fluss,|auf dem Fluss, und|singt hin- ü- ber|
w: 3.~Die|Nach- ti- gall im|Flie- der- strauch,|Flie- der- strauch,|Flie- der- strauch, was|sie da singt, ver-|
 .B.c !>!B>!f!B | !>!d2 !>!c2 | !>!B!p!.G .G.B | (df/e/ d).B | .d.e .d.B | c/f/ e/d/ .c.=B | %12
w: Fen- ster naus, zum|Fen- ster|naus. Sie schaut strom-|auf, _ _ _ sie|schaut strom- ab, ist|noch _ nicht _ da mein|
w: sei- nen Gruß, ja|sei- nen|Gruß. Des A- bends,|wenns _ _ _ Glüh-|würm- chen fliegt, sein|Na- * chen _ an das|
w: steh ich auch, ver-|steh ich|auch. Sie sa- get,|ü- * * * bers|Jahr ist Fest, hab|ich, _ mein _ Lie- ber,|
 .c.F !>!c>c | B/e/ d/c/ .B.e | .d.c !>!g>!f!B | !>!d2 !>!c2 | !>!B2 z2 | z |] %18
w: Her- zens- knab, der|schön- * ste _ Bursch am|gan zen Rhein, den|nenn ich|mein.||
w: U- fer wiegt, da|kann _ ich _ mit dem|Bur- schen mein bei-|sam- men|sein.||
w: auch ein Nest, wo|ich _ dann _ mit dem|Bur- schen mein die|Froh'st am|Rhein.||
V:4
!p!"^leggiero" .D,.G, .A, | .B,.A, .G,.E, | !>!G,2 .G,.G,, | !>!C,2 .C,.E, | !>!G,>.C, .G,.A, | %5
w: 1.~Dort in den|Wei- den steht ein|Haus, steht ein|Haus, steht ein|Haus, da schaut die|
w: 2.~Des Mor- gens|fährt er auf dem|Fluss, auf dem|Fluss, auf dem|Fluss, und singt hin-|
w: 3.~Die Nach- ti-|gall im Flie- der-|strauch, Flie- der-|strauch, Flie- der-|strauch, was sie da|
 .B,.A, .G,.E, | !>!G,3!f! G, | !>!B,,2 !>!D,2 | !>!G,,!p! G,/A,/ .B,.D | .G,.F, .B,.E, | %10
w: Magd zum Fen- ster|naus, zum|Fen- ster|naus. Sie * schaut strom-|auf, sie schaut strom-|
w: ü- ber sei- nen|Gruß, ja|sei- nen|Gruß. Des _ A- bends,|wenns Glüh- würm- chen|
w: singt, ver- steh ich|auch, ver-|steh ich|auch. Sie _ sa- get|ü- bers Jahr ist|
 !>!B,>.B, .B,,.D, | .F,.F, .F, E,/D,/ | .C, z/ C/ .C,.D, | .E,.E, .E, D,/C,/ | G,2!f! !>!G,2 | %15
w: ab, ist noch nicht|da mein Her- zens _|knab, der schön- ste|Bursch am gan- zen _|Rhein, den|
w: fliegt, sein Na- chen|an das U- fer _|wiegt, da kann ich|mit dem Bur- schen _|mein bei-|
w: Fest, hab ich, mein|Lie- ber, auch ein _|Nest, wo ich dann|mit dem Bur- schen _|mein die|
 !>!B,,2 !>!D,2 | !>!G,,2 z2 | z |] %18
w: nenn ich|mein.||
w: sam- men|sein.||
w: Froh'st am|Rhein.||

